X: 31246
T: Paddy Fahey's
R: jig
M: 6/8
K: Gmajor
B2G ~c2A|d2g fdc|B/c/dg B/c/dB|cAG FGA|
~B2G ~c2A|d2g fdc|B/c/dB cAF|1 AGF G2A:|2 AGF G3||
|:g2a bag|~a2g fdc|B2G ~c2A|d2g fdc|
[1 dgg bag|a2g fdc|B/c/dB cAF|AGF G3:|
[2 B/c/dG ABc|dfg fdc|BAG AGF|DGF G2A||

